X:93
T: Schfersmdchen, komm mit mir (Band 1), S. 262
N: P0868
O: Lothringen
S: PINCK, Louis: Verklingende Weisen, Bd 1, Metz 1928]
N: schottische Herkunft, so Vermerk des Autors
R: Verfhrung, Werbung]
M: 2/2
L: 1/8
K: A
 | E3FE2E2 | c2c2A4
d2d2B2f2 | e2e2c4
E3FE2E2 | c2c2c2
ce | d2d2B2B2 | c4z4
E3FE2E2 | c2c2A2E2
d2d2B2f2 | eeedc2c2
E3FE2E2 | c2c2c2ce
d2d2B2B2 | c6z2

